X:4
T:The New Dresser
C:Andy Hornby  1988
Q:1/4=100
I:abc2nwc
M:4/4
L:1/8
K:D
A de|f3f/2g/2 fedA|B6AG|F2A2defg|e4-eAde|
f3f/2g/2 fedA|GFGA B2AG|FAdf ef/2e/2 dc|d4-d:|
|:A cd|e3e/2f/2 ecBA|Affg f2ed|ceac Be^gb|a3a/2b/2 agfe|
f3f/2g/2 fedA|GFGA B2AG|FAdf ef/2e/2 dc|d6:|
%%vskip 2.5cm
